src/main/resources/icons/AllIcons/actions/profileMemory_dark.svg

<svg xmlns="http://www.w3.org/2000/svg" width="16" height="16" viewBox="0 0 16 16"><rect id="frame" width="16" height="16" fill="none"/><g fill="#AFB1B3" fill-rule="evenodd"><path d="M9 7H7v4H3V2h6v5z"/><path d="M0 4h3.5v1H0z"/><path d="M0 6h3.5v1H0z"/><path d="M0 8h3.5v1H0z"/><path d="M8.5 4H12v1H8.5z"/><path d="M8.5 6H12v1H8.5z"/><path d="M14 16v-2h-4v2H8V8h8v8h-2zM9.5 9.5V12h5V9.5h-5zM11 15h2v1h-2v-1z"/></g></svg>

<!-- Copyright 2000-2021 JetBrains s.r.o. Use of this source code is governed by the Apache 2.0 license that can be found in the LICENSE file. -->
<svg xmlns="http://www.w3.org/2000/svg" width="16" height="16" viewBox="0 0 16 16">
  <g fill="none" fill-rule="evenodd">
    <path fill="#AFB1B3" d="M9,7 L7,7 L7,11 L3,11 L3,2 L9,2 L9,7 Z"/>
    <rect width="3.5" height="1" y="4" fill="#AFB1B3"/>
    <rect width="3.5" height="1" y="6" fill="#AFB1B3"/>
    <rect width="3.5" height="1" y="8" fill="#AFB1B3"/>
    <rect width="3.5" height="1" x="8.5" y="4" fill="#AFB1B3"/>
    <rect width="3.5" height="1" x="8.5" y="6" fill="#AFB1B3"/>
    <path fill="#AFB1B3" d="M14,16 L14,14 L10,14 L10,16 L8,16 L8,8 L16,8 L16,16 L14,16 Z M9.5,9.5 L9.5,12 L14.5,12 L14.5,9.5 L9.5,9.5 Z M11,15 L13,15 L13,16 L11,16 L11,15 Z"/>
  </g>
</svg>
